X: 1038
T: The Barronstown Races
R:double jig
N:"collected by Cronin"
B:O'Neill's 1038
Z:Transcribed by henrik.norbeck@mailbox.swipnet.se
M:6/8
L:1/8
K:G
F|DGG GFG|BGc BAF|DFE FEF|A2 d cAF|
DGA GFG|BAG Bcd|fed cAF|AGG G2:|
d|dgg gfg|abg fed|cBc fef|abg fed|
dgg gdc|BAG Bcd|fed cAF|AGG G2:|
F|DGA BAG|(d/c/B)d cAG|FGA cAF|(c/B/A)c BAF|
"~"GFG BAB|cBc dag|fed cAF|AGG G2:|
d|gdg gbg|fdf (f/g/a)f|ede (e/f/g)e|dBG GAc|
"~"BAB cBc|"~"dcd eag|fed cAF|AGG G2:|


